X: 283
P: Longways for as many as will
M: C|
L: 1/8
K: C
|:\
c4 cdef | g2g2 g2f2 | e2ef gfed | c2A2 c2d2 |\
e2g2 efga | g2G2 cBcd | edcB A3G | G8 :|
|: d6 dd |\
d2B2 c2d2 | G2 gfedcB | A2 fedc BA | G4 A4 |\

